frontend/public/svg/logos/facebook.svg

<svg width="102" height="146" viewBox="0 0 102 146" fill="none" xmlns="http://www.w3.org/2000/svg">
<path d="M83.1334 36.3337C85.3486 36.0652 87.6333 35.9582 89.8425 35.8539C90.726 35.8125 91.6094 35.771 92.4928 35.7225C96.2924 35.5006 98.8081 33.4464 99.3935 30.0872C101 20.8788 101.045 13.3618 99.5386 6.42958C98.7858 2.9674 96.507 1.15716 93.1518 1.31797C89.8261 1.48139 86.4283 1.58045 83.142 1.67562C74.6883 1.92109 65.9456 2.17441 57.5103 3.55009C42.4553 6.0048 33.0289 15.5107 30.9628 30.3177C30.448 34.6136 30.1768 38.9354 30.1509 43.262C30.1082 44.9816 30.0643 46.7603 29.9888 48.5009C29.9323 49.8051 29.9461 51.1309 29.9606 52.5335C29.9658 53.0251 29.9711 53.5309 29.973 54.0592C28.5829 54.1065 27.2466 54.1506 25.949 54.1906C22.6535 54.297 19.5412 54.3975 16.4636 54.5451L15.1116 54.6066C12.3981 54.6791 9.69048 54.9006 7.00119 55.2697C3.16227 55.869 1.73806 57.4402 1.55363 61.2732C1.26353 67.3772 0.96812 74.4715 1.13549 81.497C1.27791 87.4697 3.94138 89.9637 10.3288 90.1042C12.9542 90.1606 15.617 90.0839 18.1918 90.0077C19.8142 89.9598 21.4918 89.9099 23.1379 89.8955C24.1214 89.8968 25.104 89.9513 26.0816 90.0583C26.3441 90.0812 26.6067 90.1042 26.8567 90.1239C26.9224 90.2913 26.9781 90.4396 27.0306 90.5741C27.1317 90.7835 27.2026 91.006 27.2407 91.2357C27.2985 105.192 27.3556 120.068 27.3674 135.008C27.3733 142.17 29.1034 144.016 36.1846 144.412C41.9729 144.736 47.8674 144.782 53.5638 144.826L55.7435 144.843C55.9404 144.843 56.1268 144.843 56.3132 144.843C64.625 144.843 66.3036 143.147 67.3216 134.345C67.5185 132.76 67.6307 131.167 67.6576 129.57C67.7384 120.644 67.7896 111.573 67.8408 102.798L67.8565 99.9302C67.8664 98.1548 67.8651 96.3801 67.8618 94.4406V92.1152C69.4009 92.1152 70.8671 92.1185 72.2822 92.1205C75.7608 92.127 79.0385 92.1316 82.2585 92.1067C86.9428 92.0706 90.3315 89.7931 91.805 85.6943C94.0116 79.549 96.127 72.8143 98.2725 65.1074C98.8265 63.1167 98.6092 61.3882 97.6438 60.1063C96.6494 58.7858 94.9698 58.0775 92.7869 58.0598C88.9237 58.0282 84.9915 58.1732 81.194 58.313C79.2144 58.3858 77.2343 58.4582 75.2561 58.5101C73.7852 58.5468 72.2868 58.5376 70.835 58.5271C70.3375 58.5235 69.84 58.5208 69.3438 58.519C69.2552 58.179 69.1731 57.8752 69.097 57.6002C68.9185 57.0101 68.7813 56.4085 68.6861 55.7995C68.522 54.7391 68.4741 53.6638 68.5437 52.593C69.498 43.2153 70.6466 37.8386 83.1334 36.3337ZM85.9793 69.0056L82.4863 81.3769L78.7878 81.4379C75.8586 81.4852 72.993 81.5318 70.1248 81.5882C58.5309 81.8192 57.0023 83.2678 56.4891 94.5109C56.1406 102.133 56.0992 109.89 56.0585 117.391C56.0421 120.552 56.025 123.713 55.9863 126.871C55.9647 128.664 55.9699 130.457 55.9758 132.332C55.9758 133.043 55.9804 133.765 55.9817 134.503C50.6037 135.453 45.7507 135.124 40.6234 134.776C40.052 134.738 39.4775 134.7 38.8999 134.662C38.8539 134.375 38.8054 134.096 38.7588 133.822C38.5965 133 38.4917 132.168 38.445 131.332C38.2932 126.068 38.1521 120.802 38.0217 115.537C37.7972 106.808 37.5655 97.7834 37.2583 88.9077C37.001 81.4314 35.25 79.8758 27.3812 80.0918C23.6998 80.1974 20.0564 80.4022 16.1998 80.6168C14.6935 80.7022 13.1642 80.7881 11.6015 80.8702V65.2894C11.9611 65.2409 12.3189 65.189 12.6739 65.1378C13.8122 64.9514 14.9596 64.8257 16.1112 64.7616C18.1176 64.6868 20.1634 64.6534 22.1416 64.6219C25.0295 64.5746 28.0099 64.5261 30.9443 64.3482C38.3354 63.9006 39.7393 62.4394 39.7735 55.154C39.7846 53.0222 39.7702 50.8881 39.7564 48.7576C39.7347 45.3335 39.7124 41.793 39.7951 38.3184C39.8967 36.094 40.1361 33.8782 40.5118 31.6835L40.7008 30.4071C42.0922 20.8534 48.0459 14.9674 58.9037 12.4122L59.6289 12.2376C60.856 11.888 62.1184 11.6771 63.3924 11.6088C69.7192 11.5498 75.957 11.5584 82.5624 11.5649C84.6417 11.5675 86.7426 11.5692 88.8639 11.57C90.0637 16.3265 89.4172 21.2425 88.564 25.5015C87.695 25.6564 86.8253 25.8094 85.9537 25.9608C83.7517 26.3441 81.4742 26.7407 79.2394 27.1962C66.9757 29.6903 61.3978 35.8066 59.9854 48.2974C59.9093 48.9787 59.8285 49.6607 59.7491 50.3433C59.3625 53.6427 58.9615 57.055 58.8959 60.4339C58.7817 66.3061 60.8143 68.4726 66.662 68.7141C69.9785 68.8513 73.3468 68.789 76.6035 68.7292C78.4045 68.6958 80.2666 68.6636 82.0958 68.6636C83.0271 68.682 83.9571 68.7548 84.8799 68.8815C85.2258 68.9196 85.5888 68.9616 85.98 69.0036L85.9793 69.0056Z" fill="black"/>
</svg>

<svg xmlns="http://www.w3.org/2000/svg" width="102" height="146" fill="none" viewBox="0 0 102 146"><path fill="#000" d="M83.133 36.334c2.216-.269 4.5-.376 6.71-.48q1.324-.06 2.65-.132c3.8-.221 6.315-2.276 6.9-5.635 1.607-9.208 1.652-16.725.146-23.657-.753-3.463-3.032-5.273-6.387-5.112-3.326.163-6.724.262-10.01.358-8.454.245-17.196.498-25.632 1.874-15.055 2.455-24.48 11.96-26.547 26.768a115 115 0 0 0-.812 12.944c-.043 1.72-.087 3.498-.162 5.239-.057 1.304-.043 2.63-.028 4.032q.008.736.012 1.526c-1.39.047-2.726.092-4.024.132-3.296.106-6.408.206-9.485.354l-1.352.062a74 74 0 0 0-8.11.663c-3.84.599-5.264 2.17-5.448 6.003-.29 6.104-.586 13.199-.419 20.224.143 5.973 2.806 8.467 9.194 8.607 2.625.057 5.288-.02 7.863-.096 1.622-.048 3.3-.098 4.946-.112q1.476 0 2.944.162c.262.023.525.046.775.066l.174.45q.151.316.21.662c.058 13.956.115 28.832.126 43.772.006 7.162 1.736 9.008 8.818 9.404 5.788.324 11.682.37 17.379.414l2.18.017h.57c8.311 0 9.99-1.696 11.008-10.498q.296-2.379.336-4.775c.08-8.926.132-17.997.183-26.772l.016-2.868c.01-1.775.008-3.55.005-5.49v-2.325c1.539 0 3.005.004 4.42.006 3.479.006 6.757.01 9.977-.014 4.684-.036 8.073-2.314 9.546-6.413 2.207-6.145 4.322-12.88 6.467-20.587.554-1.99.337-3.719-.628-5-.995-1.321-2.674-2.03-4.857-2.047-3.863-.032-7.796.113-11.593.253-1.98.073-3.96.145-5.938.197-1.47.037-2.97.028-4.421.017l-1.491-.008q-.132-.508-.247-.919a13 13 0 0 1-.41-1.8 14.7 14.7 0 0 1-.143-3.207c.954-9.378 2.103-14.754 14.59-16.26m2.846 32.672-3.493 12.37-3.698.062c-2.93.047-5.795.094-8.663.15-11.594.231-13.123 1.68-13.636 12.923-.348 7.622-.39 15.379-.43 22.88a1342 1342 0 0 1-.073 9.48 359 359 0 0 0-.01 5.461l.006 2.171c-5.378.95-10.231.621-15.359.273l-1.723-.114q-.07-.43-.141-.84a18 18 0 0 1-.314-2.49q-.228-7.897-.423-15.795c-.225-8.729-.456-17.754-.764-26.63-.257-7.476-2.008-9.031-9.877-8.815-3.681.105-7.325.31-11.181.525q-2.257.129-4.598.253V65.29q.54-.075 1.072-.152a32 32 0 0 1 3.437-.376c2.007-.075 4.052-.109 6.03-.14 2.889-.047 5.869-.096 8.803-.274 7.391-.447 8.795-1.909 8.83-9.194.01-2.132-.004-4.266-.018-6.396-.021-3.425-.044-6.965.04-10.44.1-2.224.34-4.44.716-6.634l.189-1.277c1.391-9.554 7.345-15.44 18.203-17.995l.725-.174c1.227-.35 2.49-.56 3.763-.63 6.327-.058 12.565-.05 19.17-.043q3.12.004 6.302.005c1.2 4.756.553 9.673-.3 13.932q-1.304.231-2.61.459c-2.202.383-4.48.78-6.715 1.235-12.263 2.494-17.841 8.61-19.254 21.101q-.116 1.023-.236 2.046c-.387 3.3-.788 6.712-.853 10.09-.114 5.873 1.918 8.04 7.766 8.281 3.316.137 6.685.075 9.941.015 1.802-.033 3.664-.065 5.493-.065a24 24 0 0 1 2.784.218c.346.038.709.08 1.1.122z"/></svg>
